icons/bluetooth-fill.svg

<svg xmlns="http://www.w3.org/2000/svg" width="24" height="24" fill="none"><g clip-path="url(#a)"><g><path fill="#121212" d="M14.341 12.03L18.684 16.373L13.028 22.029H11.028V15.343L6.664 19.707L5.249 18.293L11.028 12.515V11.545L5.249 5.76499L6.664 4.35099L11.028 8.71499V2.02899H13.028L18.684 7.68599L14.341 12.029V12.03ZM13.028 13.544V19.201L15.856 16.373L13.028 13.544ZM13.028 10.514L15.856 7.68599L13.028 4.85799V10.515V10.514Z"/></g></g><defs><clipPath id="a"><rect width="24" height="24" fill="white"/></clipPath></defs></svg>

<svg width="24" height="24" fill="none" xmlns="http://www.w3.org/2000/svg"><g clip-path="url(#a)"><path d="m14.341 12.03 4.343 4.343-5.656 5.656h-2v-6.686l-4.364 4.364-1.415-1.414 5.779-5.778v-.97l-5.779-5.78 1.415-1.414 4.364 4.364V2.029h2l5.656 5.657-4.343 4.343v.001Zm-1.313 1.514v5.657l2.828-2.828-2.828-2.829Zm0-3.03 2.828-2.828-2.828-2.828v5.657-.001Z" /></g><defs><clipPath id="a"><path fill="#fff" d="M0 0h24v24H0z"/></clipPath></defs></svg>
